!!!COM: Anon.
!!!OTL: Sakura-Miyotote
!!!OTC: Japanese Popular Music: A Collection of The Popular Music of Japan Rendered in to the Staff notation.
!!!CNT: Nippon, Japanese
!!!TXO: Nippon, Japan
!!!OCY: Nippon, Japan
!!!ODT: <1892///
!!!PSR: S. Miki & Co.
!!!PSP: Osaka, Nippon
!!!PDT: 1892///
!!!PPE: Y Nagai & K. Kobatake
!!!PED: Revised Second Edition
!!!PPG: page 37
!! Allegro moderato
**kern	**silbe
*ICstr	*Lnippon
*ICvox	*
*Ikoto	*
*Ivox	*
*clefG2	*
*k[]	*
*M4/4	*
8cc	.
=1	=1
4B 4b	.
4a	.
4.B 4.b	.
8a	.
=2	=2
4b	.
2b	.
8a	.
8b	.
=3	=3
4B	.
8cc	.
(4a	.
4f)	.
=4	=4
2f	.
(4e	.
4cc)	.
=5	=5
4b	.
8a	.
8b	.
4B	.
4f	.
=6	=6
4e	.
8a	.
8a	.
4b	.
8c	.
8c	.
=7	=7
4B	.
8a	.
8a	.
4b	.
4r	.
=8	=8
4ee	.
4b	.
8.b	.
16a	.
4f	.
=9	=9
2e	.
4a	.
4f	.
=10	=10
4a	.
4e	.
4d	.
8e	.
8d	.
=11	=11
4e	.
4f	.
8a	.
8a	.
8e	.
8a	.
=12	=12
4b	.
4a	.
4b	.
8b	.
8e	.
=13	=13
4dd	.
4ee	.
4e	.
4ff	.
=14	=14
8ee	.
4ee	.
8cc	.
4b	.
8b	.
8cc	.
=15	=15
4ee	.
4cc	.
4b	.
4a	.
=16	=16
4B	.
4f	.
4.e	.
8d	.
=17	=17
4e	.
4B	.
4d	.
4e	.
=18	=18
8f	.
8e	.
8B	.
8d	.
2e	.
=19	=19
4ff	.
4r	.
4ee	.
4r	.
=20	=20
(4cc	.
4b)	.
(4cc	.
4ee)	.
=21	=21
4cc	.
4b	.
4a	.
4b	.
=22	=22
4cc	.
4e	.
4c	.
8B	.
8cc	.
=23	=23
4a	.
4f	.
2e	.
=24	=24
8B	.
4B	.
8a	.
4b	.
8b	.
8b	.
=25	=25
8c	.
8c	.
8e	.
8c	.
4B	.
8cc	.
8b	.
=26	=26
8e	.
8a	.
8a	.
8a	.
4b	.
8cc	.
8cc	.
=27	=27
8r	.
8ee	.
8cc	.
8cc	.
8b	.
8cc	.
8a	.
8f	.
=28	=28
4a	.
4b	.
8cc	.
8b	.
8e	.
8a	.
=29	=29
4b	.
4b	.
4.b	.
8cc	.
=30	=30
4b	.
4e	.
4B 4b	.
4r	.
==	==
*-	*-
!!!ENC: David Huron
!!!RDT: 2000/1/30
!!!EEV: Release 1.0
!!!ELF: 11/28
!!!YER: 2000/2/1
!!!YEM: Copyright David Huron, 2000
!!!YEN: United States of America
